T: Chalk Sunday
M: 6/8
L: 1/8
K: Amaj
A2 B cBc | Ace a2 f | ecA BAF | BcB BAF |A2 B cBc | Ace a2 f | ecA BAB | cAA A2 :|ece a2 f | ece a2 f | ecA BAF | BcB BAF |A2 B cBc | Ace a2 f | ecA BAB | cAA A2 :|
